X:331
T: ACH WENN DU WAERST MEIN EIGEN
N: B0388
O: Europa, Mitteleuropa, Deutschland
R: Liebes - Lied, Liebes - Lust
M: 4/4
L: 1/8
K: G
D2 | B2B2B2cB | A4E2
E2 | D2^CDB2A2 | G4z2
D2 | B2B2B2cB | A4E2
E2 | D2^CDB2A2 | G4z2
B2 | B3AG2F2 | F2^G^AB2
B2 | ^c3BA2A2 | B3AF2
A2 | A3GF2F2 | A4G2
E2 | D2^CDB2A2 | G4z2

@@@ Tune index: 2134
